source/icons/microphone.svg

<svg xmlns="http://www.w3.org/2000/svg" width="8" height="8" viewBox="0 0 8 8">
  <path d="M2.91-.03a1 1 0 0 0-.13.03 1 1 0 0 0-.78 1v2a1 1 0 1 0 2 0v-2a1 1 0 0 0-1.09-1.03zm-2.56 2.03a.5.5 0 0 0-.34.5v.5c0 1.48 1.09 2.69 2.5 2.94v1.06h-.5c-.55 0-1 .45-1 1h4.01c0-.55-.45-1-1-1h-.5v-1.06c1.41-.24 2.5-1.46 2.5-2.94v-.5a.5.5 0 1 0-1 0v.5c0 1.11-.89 2-2 2-1.11 0-2-.89-2-2v-.5a.5.5 0 0 0-.59-.5.5.5 0 0 0-.06 0z"
  transform="translate(1)" />
</svg>

<svg xmlns="http://www.w3.org/2000/svg" width="8" height="8" viewBox="0 0 8 8"><path d="M2.91-.03a1 1 0 0 0-.13.03A1 1 0 0 0 2 1v2a1 1 0 1 0 2 0V1A1 1 0 0 0 2.91-.03zM.35 2a.5.5 0 0 0-.34.5V3c0 1.48 1.09 2.69 2.5 2.94V7h-.5c-.55 0-1 .45-1 1h4.01c0-.55-.45-1-1-1h-.5V5.94C4.93 5.7 6.02 4.48 6.02 3v-.5a.5.5 0 1 0-1 0V3c0 1.11-.89 2-2 2-1.11 0-2-.89-2-2v-.5A.5.5 0 0 0 .43 2a.5.5 0 0 0-.06 0z" transform="translate(1)"/></svg>
